src/lib/packages/icons/src/assets/line/exchange-horizontal.svg

<svg width="24" height="24" viewBox="0 0 24 24" fill="none" xmlns="http://www.w3.org/2000/svg">
<path d="M21.53 14.5301L16.53 19.5301C16.384 19.6761 16.192 19.75 16 19.75C15.808 19.75 15.6159 19.6771 15.4699 19.5301C15.1769 19.2371 15.1769 18.762 15.4699 18.469L19.1899 14.749H5.99997C5.58597 14.749 5.24997 14.413 5.24997 13.999C5.24997 13.585 5.58597 13.249 5.99997 13.249H21C21.304 13.249 21.5771 13.4319 21.6931 13.7119C21.8091 13.9929 21.745 14.3161 21.53 14.5301ZM18.75 9.00002C18.75 8.58602 18.414 8.25002 18 8.25002H4.811L8.53098 4.53005C8.82398 4.23705 8.82398 3.76202 8.53098 3.46902C8.23798 3.17602 7.76294 3.17602 7.46994 3.46902L2.46994 8.46902C2.25494 8.68302 2.19185 9.00591 2.30685 9.28591C2.42285 9.56591 2.69697 9.74905 2.99997 9.74905H18C18.414 9.75005 18.75 9.41402 18.75 9.00002Z" fill="currentColor"/>
</svg>

<svg xmlns="http://www.w3.org/2000/svg" width="24" height="24" fill="none"><path fill="currentColor" d="m21.53 14.53-5 5a.748.748 0 0 1-1.06 0 .75.75 0 0 1 0-1.061l3.72-3.72H6a.75.75 0 0 1 0-1.5h15a.75.75 0 0 1 .53 1.281ZM18.75 9a.75.75 0 0 0-.75-.75H4.811l3.72-3.72A.75.75 0 1 0 7.47 3.469l-5 5A.75.75 0 0 0 3 9.749h15A.749.749 0 0 0 18.75 9Z"/></svg>
